assets/Flamingo/Flat/flamingo_flat.svg

<svg xmlns="http://www.w3.org/2000/svg" width="32" height="32" fill="none"><path fill="#D73B9A" d="M15.94 30.01h-1.19a.749.749 0 1 1 0-1.5h.75V19c0-.41.34-.75.75-.75s.75.34.75.76v9.95c0 .58-.48 1.05-1.06 1.05Z"/><path fill="#F837A2" d="M11.25 24.5c-.41 0-.75-.34-.75-.75v-.37c0-.76.62-1.38 1.38-1.38h8.44c.1 0 .15-.06.17-.11.02-.05.04-.12-.02-.2l-3.92-5.02 1.18-.92 3.92 5.02c.4.51.47 1.19.19 1.77-.28.59-.9.96-1.56.96H12v.24c0 .43-.34.76-.75.76Z"/><path fill="#FF6DC6" d="M16.26 8h.14c5.51.07 10.14 4.36 10.57 9.77.06.67-.47 1.23-1.13 1.23H10.71a5.702 5.702 0 0 1-4.12-9.65L10.75 5H10l-.5-1.5L10 2h1.28a2.723 2.723 0 0 1 1.92 4.65l-4.98 4.98c-.29.29-.29.77 0 1.06.29.29.77.29 1.06 0l2.99-2.98C13.15 8.74 14.79 8 16.26 8Z"/><path fill="#FFB2FF" d="M24.76 16.71c-.34-3.99-3.53-7.12-7.61-7.12a3.91 3.91 0 1 0 0 7.82l6.96-.01c.38.01.68-.31.65-.69Z"/><path fill="#636363" d="M8.19 2C6.98 2 6 2.98 6 4.19v1.15c0 .28.32.45.55.3l.6-.39c.24-.16.53-.25.82-.25H9l.5-1.5L9 2h-.81Z"/><path fill="#1C1C1C" d="M11.5 4a.5.5 0 1 0 0-1 .5.5 0 0 0 0 1Z"/><path fill="#D3D3D3" d="M10 2H9v3h1V2Z"/></svg>

<svg width="32" height="32" viewBox="0 0 32 32" fill="none" xmlns="http://www.w3.org/2000/svg">
<path d="M15.94 30.01H14.75C14.34 30.01 14 29.68 14 29.26C14 28.84 14.34 28.51 14.75 28.51H15.5V19C15.5 18.59 15.84 18.25 16.25 18.25C16.66 18.25 17 18.59 17 19.01V28.96C17 29.54 16.52 30.01 15.94 30.01Z" fill="#D73B9A"/>
<path d="M11.25 24.5C10.84 24.5 10.5 24.16 10.5 23.75V23.38C10.5 22.62 11.12 22 11.88 22H20.32C20.42 22 20.47 21.94 20.49 21.89C20.51 21.84 20.53 21.77 20.47 21.69L16.55 16.67L17.73 15.75L21.65 20.77C22.05 21.28 22.12 21.96 21.84 22.54C21.56 23.13 20.94 23.5 20.28 23.5H12V23.74C12 24.17 11.66 24.5 11.25 24.5Z" fill="#F837A2"/>
<path d="M16.26 8H16.4C21.91 8.07 26.54 12.36 26.97 17.77C27.03 18.44 26.5 19 25.84 19H10.71C7.55 19 5 16.45 5 13.29C5 11.82 5.57 10.41 6.59 9.35L10.75 5H10L9.5 3.5L10 2H11.28C12.78 2 14 3.22 14 4.72C14 5.44 13.71 6.14 13.2 6.65L8.22 11.63C7.93 11.92 7.93 12.4 8.22 12.69C8.51 12.98 8.99 12.98 9.28 12.69L12.27 9.71C13.15 8.74 14.79 8 16.26 8Z" fill="#FF6DC6"/>
<path d="M24.76 16.71C24.42 12.72 21.23 9.58997 17.15 9.58997C14.99 9.58997 13.24 11.34 13.24 13.5C13.24 15.66 14.99 17.41 17.15 17.41C17.23 17.41 24.11 17.4 24.11 17.4C24.49 17.41 24.79 17.09 24.76 16.71Z" fill="#FFB2FF"/>
<path d="M8.19 2C6.98 2 6 2.98 6 4.19V5.34C6 5.62 6.32 5.79 6.55 5.64L7.15 5.25C7.39 5.09 7.68 5 7.97 5H9L9.5 3.5L9 2H8.19Z" fill="#636363"/>
<path d="M11.5 4C11.7761 4 12 3.77614 12 3.5C12 3.22386 11.7761 3 11.5 3C11.2239 3 11 3.22386 11 3.5C11 3.77614 11.2239 4 11.5 4Z" fill="#1C1C1C"/>
<path d="M10 2H9V5H10V2Z" fill="#D3D3D3"/>
</svg>
